img/svg/editors/people.svg

<svg width="28" height="28" viewBox="0 0 28 28" fill="none" xmlns="http://www.w3.org/2000/svg">
<path d="M19.25 16.25C22.6085 16.25 24.6555 17.5021 25.8701 18.9189C27.1051 20.3598 27.5 21.9946 27.5 22.75C27.5 23.1 27.4139 23.3293 27.3105 23.4844C27.2051 23.6426 27.0608 23.7543 26.9014 23.834C26.74 23.9146 26.5727 23.9576 26.4414 23.9795C26.3772 23.9902 26.3246 23.9956 26.29 23.998C26.2728 23.9993 26.2599 23.9998 26.2529 24H12.2471C12.2401 23.9998 12.2272 23.9993 12.21 23.998C12.1754 23.9956 12.1228 23.9902 12.0586 23.9795C11.9273 23.9576 11.76 23.9146 11.5986 23.834C11.4392 23.7543 11.2949 23.6426 11.1895 23.4844C11.0861 23.3293 11 23.1 11 22.75C11 21.9946 11.3949 20.3598 12.6299 18.9189C13.8445 17.5021 15.8915 16.25 19.25 16.25ZM8.75 16.25H8.75098C8.7806 16.25 8.81022 16.2518 8.83984 16.252L8.33398 17.0107C5.6252 17.1017 3.94536 18.0797 2.90625 19.1787L2.7002 19.4072C1.5795 20.7123 1.25 22.1755 1.25 22.75V23.25H7.49609L7.5 22.7539C7.51332 21.0696 7.9932 19.4237 8.88379 17.998L9.11035 17.9961V16.2578C9.18848 16.26 9.26666 16.26 9.34473 16.2637L9.93848 16.3057H9.93945C10.325 16.341 10.7078 16.4009 11.0859 16.4814C10.9248 16.6334 10.77 16.7893 10.6221 16.9492L10.2725 17.3496C8.95778 18.9391 8.25218 20.8524 8.25 22.7412C8.24239 23.1677 8.2969 23.5915 8.41016 24H1.75C1.24326 24 0.955675 23.8736 0.791016 23.709C0.626357 23.5443 0.5 23.2567 0.5 22.75C0.5 21.9946 0.894877 20.3598 2.12988 18.9189C3.34445 17.5021 5.39153 16.25 8.75 16.25ZM19.25 17C16.2992 17 14.4988 18.0202 13.4082 19.1758L13.1992 19.4082C12.0848 20.7057 11.7522 22.1607 11.75 22.7412L11.748 23.1426L12.1396 23.2305C12.1663 23.2365 12.1936 23.2414 12.2207 23.2451L12.2539 23.25H26.2402L26.2695 23.2471C26.2862 23.2451 26.3028 23.2421 26.3193 23.2393L26.3389 23.2363L26.3574 23.2314L26.3711 23.2285L26.7529 23.1328L26.75 22.7393C26.7459 22.1987 26.455 20.8846 25.499 19.6523L25.2988 19.4072C24.233 18.1626 22.3955 17 19.25 17ZM7.875 4.875C9.05607 4.875 10.1921 5.3145 11.0635 6.10352L11.2334 6.2666C12.1242 7.1574 12.625 8.36522 12.625 9.625C12.625 10.8061 12.1855 11.9421 11.3965 12.8135L11.2334 12.9834C10.3426 13.8742 9.13478 14.375 7.875 14.375C6.69393 14.375 5.55788 13.9355 4.68652 13.1465L4.5166 12.9834C3.6258 12.0926 3.125 10.8848 3.125 9.625C3.125 8.44393 3.5645 7.30788 4.35352 6.43652L4.5166 6.2666C5.4074 5.3758 6.61522 4.875 7.875 4.875ZM19.25 4C20.4311 4 21.5671 4.4395 22.4385 5.22852L22.6084 5.3916C23.4992 6.2824 24 7.49022 24 8.75C24 9.29574 23.906 9.83684 23.7227 10.3496L23.6387 10.5674C23.4298 11.0717 23.1353 11.5358 22.7695 11.9395L22.6084 12.1084C22.2224 12.4944 21.7736 12.811 21.2812 13.0439L21.0674 13.1387C20.4912 13.3773 19.8736 13.5 19.25 13.5C18.7043 13.5 18.1632 13.406 17.6504 13.2227L17.4326 13.1387C16.8563 12.9 16.3327 12.5495 15.8916 12.1084C15.5056 11.7224 15.189 11.2736 14.9561 10.7812L14.8613 10.5674C14.6227 9.9912 14.5 9.37364 14.5 8.75C14.5 7.56893 14.9395 6.43288 15.7285 5.56152L15.8916 5.3916C16.7824 4.5008 17.9902 4 19.25 4ZM7.875 5.625C6.88039 5.625 5.92421 5.99569 5.19043 6.66016L5.04688 6.79688C4.29673 7.54702 3.875 8.56413 3.875 9.625C3.875 10.6196 4.24569 11.5758 4.91016 12.3096L5.04688 12.4531C5.79702 13.2033 6.81413 13.625 7.875 13.625C8.86961 13.625 9.82579 13.2543 10.5596 12.5898L10.7031 12.4531C11.4533 11.703 11.875 10.6859 11.875 9.625C11.875 8.63039 11.5043 7.67421 10.8398 6.94043L10.7031 6.79688C9.95298 6.04673 8.93587 5.625 7.875 5.625ZM19.25 4.75C18.2554 4.75 17.2992 5.12069 16.5654 5.78516L16.4219 5.92188C15.6717 6.67202 15.25 7.68913 15.25 8.75C15.25 9.74461 15.6207 10.7008 16.2852 11.4346L16.4219 11.5781C17.172 12.3283 18.1891 12.75 19.25 12.75C20.2446 12.75 21.2008 12.3793 21.9346 11.7148L22.0781 11.5781C22.8283 10.828 23.25 9.81087 23.25 8.75C23.25 7.75539 22.8793 6.79921 22.2148 6.06543L22.0781 5.92188C21.328 5.17173 20.3109 4.75 19.25 4.75Z" fill="#030303" stroke="#FBFBFB"/>
</svg>

<svg width="28" height="28" fill="none" xmlns="http://www.w3.org/2000/svg"><path d="M19.25 16.25c3.358 0 5.405 1.252 6.62 2.669 1.235 1.44 1.63 3.076 1.63 3.831 0 .35-.086.58-.19.734-.105.159-.25.27-.409.35a1.655 1.655 0 01-.648.166H12.247c-.007 0-.02 0-.037-.002a1.655 1.655 0 01-.611-.164 1.036 1.036 0 01-.41-.35C11.087 23.33 11 23.1 11 22.75c0-.755.395-2.39 1.63-3.831 1.214-1.417 3.261-2.669 6.62-2.669zm-10.5 0h.001l.089.002-.506.759c-2.709.09-4.389 1.069-5.428 2.168l-.206.228c-1.12 1.305-1.45 2.768-1.45 3.343v.5h6.246l.004-.496a9.113 9.113 0 011.384-4.756l.226-.002v-1.738c.078.002.157.002.235.006l.593.042h.001a9.83 9.83 0 011.147.175 9.687 9.687 0 00-.464.468l-.35.4c-1.314 1.59-2.02 3.503-2.022 5.392-.008.427.047.85.16 1.259H1.75c-.507 0-.794-.126-.959-.291C.626 23.544.5 23.257.5 22.75c0-.755.395-2.39 1.63-3.831 1.214-1.417 3.262-2.669 6.62-2.669zm10.5.75c-2.95 0-4.751 1.02-5.842 2.176l-.209.232c-1.114 1.298-1.447 2.753-1.449 3.333l-.002.402.392.087a.97.97 0 00.08.015l.034.005H26.24l.03-.003.05-.008.019-.003.018-.005.014-.003.382-.095-.003-.394c-.004-.54-.295-1.854-1.251-3.087l-.2-.245C24.233 18.163 22.395 17 19.25 17zM7.875 4.875a4.75 4.75 0 013.188 1.229l.17.163a4.75 4.75 0 01.163 6.546l-.163.17a4.75 4.75 0 01-6.546.163l-.17-.163a4.75 4.75 0 01-.163-6.546l.163-.17a4.75 4.75 0 013.358-1.392zM19.25 4a4.75 4.75 0 013.189 1.229l.17.163a4.75 4.75 0 011.114 4.958l-.084.217a4.753 4.753 0 01-.87 1.373l-.16.168a4.749 4.749 0 01-1.328.936l-.214.095a4.75 4.75 0 01-3.417.084l-.217-.084a4.751 4.751 0 01-2.477-2.358l-.095-.214a4.75 4.75 0 01.867-5.005l.164-.17A4.75 4.75 0 0119.25 4zM7.875 5.625A4 4 0 005.19 6.66l-.143.137a4 4 0 00-.137 5.513l.137.143a4 4 0 005.513.137l.143-.137a4 4 0 00.137-5.513l-.137-.143a4 4 0 00-2.828-1.172zM19.25 4.75a4 4 0 00-2.685 1.035l-.143.137a4 4 0 00-.137 5.513l.137.143a4 4 0 005.513.137l.143-.137a4 4 0 00.137-5.513l-.137-.143A4 4 0 0019.25 4.75z" fill="#030303" stroke="#FBFBFB"/></svg>
